rospo-icon-theme-classic-common/32x32/apps/chrome-macmgoeeggnlnmpiojbcniblabkdjphe-Default.svg

<svg height="32" width="32" xmlns="http://www.w3.org/2000/svg"><path d="m30 29.6v-25.2c0-.7756-.6244-1.4-1.4-1.4h-25.2c-.7756 0-1.4.6244-1.4 1.4v25.2c0 .7756.6244 1.4 1.4 1.4h25.2c.7756 0 1.4-.6244 1.4-1.4z" opacity=".2"/><path d="m30 28.6v-25.2c0-.7756-.6244-1.4-1.4-1.4h-25.2c-.7756 0-1.4.6244-1.4 1.4v25.2c0 .7756.6244 1.4 1.4 1.4h25.2c.7756 0 1.4-.6244 1.4-1.4z" fill="#70b943"/><path d="m13.5 10c-.51302.000091-.990411.262361-1.265625.695312l-5.2363281 6.666016c-.6421016.729158-.9968649 1.667094-.9980469 2.638672 0 2.209139 1.790861 4 4 4 2.025081-.0016 3.729459-1.51645 3.96875-3.527344.437764.340817.976459.526337 1.53125.527344.167949-.000089.335462.03368.5 0 .164538.03368.332051-.00009.5 0 .554791-.001 1.093486-.186527 1.53125-.527344.239291 2.010894 1.943669 3.525711 3.96875 3.527344 2.209139 0 4-1.790861 4-4-.0012-.971578-.355945-1.909514-.998047-2.638672l-5.236328-6.666016c-.275214-.432951-.752605-.695221-1.265625-.695312-.828427 0-1.5.671573-1.5 1.5.000275.477654.228022.926621.613281 1.208984l-.04687.05274c-.04168-.05299-.086-.103833-.132812-.152344-.04651-.04799-.0954-.09362-.146485-.136719-.05069-.04297-.10349-.08338-.158203-.121094-.04872-.03346-.0989-.06474-.15039-.09375-.0097-.0053-.01949-.01051-.0293-.01562-.04971-.02688-.100537-.05164-.152344-.07422-.0091-.004-.0182-.0079-.02734-.01172-.04239-.01775-.08539-.03404-.128906-.04883-.02266-.0076-.04545-.01473-.06836-.02148-.0496-.01496-.09977-.028-.150391-.03906-.01234-.0027-.02472-.0053-.03711-.0078-.03694-.0069-.07406-.01277-.111328-.01758-.03892-.0057-.078-.01027-.117188-.01367-.05197-.004691-.104089-.007272-.156254-.007837-.05217.000565-.104288.0032-.15625.0078-.03919.0034-.07827.008-.117188.01367-.03727.0048-.07439.01067-.111328.01758-.01239.0025-.02476.0051-.03711.0078-.05062.01107-.100786.0241-.150391.03906-.02291.0068-.0457.01391-.06836.02148-.04352.01479-.08651.03108-.128906.04883-.0091.0038-.01826.0077-.02734.01172-.05181.02258-.102634.04734-.152344.07422-.0098.0051-.01958.01033-.0293.01562-.05149.02901-.10167.06029-.15039.09375-.05471.03771-.107513.07813-.158203.121094-.05108.0431-.09997.08873-.146485.136719-.04681.04851-.09114.09936-.132812.152344l-.04687-.05274c.385251-.282289.613002-.731293.613277-1.208947 0-.828427-.671573-1.5-1.5-1.5zm-3.5 7c1.656854 0 3 1.343146 3 3s-1.343146 3-3 3c-1.6568542 0-2.9999999-1.343146-3-3 .0000001-1.656854 1.3431458-3 3-3zm12 0c1.656854 0 3 1.343146 3 3s-1.343146 3-3 3-3-1.343146-3-3 1.343146-3 3-3zm-6 1a1 1 0 0 1 1 1 1 1 0 0 1 -1 1 1 1 0 0 1 -1-1 1 1 0 0 1 1-1z" opacity=".2"/><path d="m13.5 9c-.51302.0000907-.990411.2623613-1.265625.6953125l-5.2363281 6.6660155c-.6421016.729158-.9968649 1.667094-.9980469 2.638672 0 2.209139 1.790861 4 4 4 2.025081-.0016 3.729459-1.51645 3.96875-3.527344.437764.340817.976459.526337 1.53125.527344.167949-.000089.335462.03368.5 0 .164538.03368.332051-.00009.5 0 .554791-.001 1.093486-.186527 1.53125-.527344.239291 2.010894 1.943669 3.525711 3.96875 3.527344 2.209139 0 4-1.790861 4-4-.0012-.971578-.355945-1.909514-.998047-2.638672l-5.236328-6.6660155c-.275214-.4329512-.752605-.6952218-1.265625-.6953125-.828427 0-1.5.6715729-1.5 1.5.000275.477654.228022.926621.613281 1.208984l-.04687.05274c-.04168-.05299-.086-.103833-.132812-.152344-.04651-.04799-.0954-.09362-.146485-.136719-.05069-.04297-.10349-.08338-.158203-.121094-.04872-.03346-.0989-.06474-.15039-.09375-.0097-.0053-.01949-.0105-.0293-.01562-.04971-.02688-.100537-.05164-.152344-.07422-.0091-.004-.0182-.0079-.02734-.01172-.04239-.01775-.08539-.03404-.128906-.04883-.02266-.0076-.04545-.01473-.06836-.02148-.0496-.01496-.09977-.028-.150391-.03906-.01234-.0027-.02472-.0053-.03711-.0078-.03694-.0069-.07406-.01277-.111328-.01758-.03892-.0057-.078-.01027-.117188-.01367-.05197-.0047-.104085-.0072-.15625-.0078-.05217.000565-.104288.0032-.15625.0078-.03919.0034-.07827.008-.117188.01367-.03727.0048-.07439.01067-.111328.01758-.01239.0025-.02476.0051-.03711.0078-.05062.01107-.100786.0241-.150391.03906-.02291.0068-.0457.01391-.06836.02148-.04352.01479-.08651.03108-.128906.04883-.0091.0038-.01826.0077-.02734.01172-.05181.02258-.102634.04734-.152344.07422-.0098.0051-.01958.01033-.0293.01562-.05149.02901-.10167.06029-.15039.09375-.05471.03771-.107513.07813-.158203.121094-.05108.0431-.09997.08873-.146485.136719-.04681.04851-.09114.09936-.132812.152344l-.04687-.05274c.385247-.282326.612998-.73133.613273-1.208984 0-.8284271-.671573-1.5-1.5-1.5zm-3.5 7c1.656854 0 3 1.343146 3 3s-1.343146 3-3 3c-1.6568542 0-2.9999999-1.343146-3-3 .0000001-1.656854 1.3431458-3 3-3zm12 0c1.656854 0 3 1.343146 3 3s-1.343146 3-3 3-3-1.343146-3-3 1.343146-3 3-3zm-6 1a1 1 0 0 1 1 1 1 1 0 0 1 -1 1 1 1 0 0 1 -1-1 1 1 0 0 1 1-1z" fill="#fff"/><path d="m3.4003906 2c-.7756 0-1.4003906.6247906-1.4003906 1.4003906v1c0-.7756.6247906-1.4003906 1.4003906-1.4003906h25.1992184c.7756 0 1.400391.6247906 1.400391 1.4003906v-1c0-.7756-.624791-1.4003906-1.400391-1.4003906z" fill="#fff" opacity=".2"/></svg>

<svg xmlns="http://www.w3.org/2000/svg" width="32" height="32" version="1">
 <path style="opacity:0.2" d="M 30,29.6 30,4.4 C 30,3.6244 29.3756,3 28.6,3 L 3.4,3 C 2.6244,3 2,3.6244 2,4.4 L 2,29.6 C 2,30.3756 2.6244,31 3.4,31 l 25.2,0 c 0.7756,0 1.4,-0.6244 1.4,-1.4 z"/>
 <path style="fill:#70b943" d="M 30,28.6 30,3.4 C 30,2.6244 29.3756,2 28.6,2 L 3.4,2 C 2.6244,2 2,2.6244 2,3.4 L 2,28.6 C 2,29.3756 2.6244,30 3.4,30 l 25.2,0 c 0.7756,0 1.4,-0.6244 1.4,-1.4 z"/>
 <path style="opacity:0.2" d="m 13.5,10 c -0.51302,9.1e-5 -0.990411,0.262361 -1.265625,0.695312 L 6.9980469,17.361328 C 6.3559453,18.090486 6.001182,19.028422 6,20 c 0,2.209139 1.790861,4 4,4 2.025081,-0.0016 3.729459,-1.51645 3.96875,-3.527344 C 14.406514,20.813473 14.945209,20.998993 15.5,21 c 0.167949,-8.9e-5 0.335462,0.03368 0.5,0 0.164538,0.03368 0.332051,-9e-5 0.5,0 0.554791,-0.001 1.093486,-0.186527 1.53125,-0.527344 C 18.270541,22.48355 19.974919,23.998367 22,24 c 2.209139,0 4,-1.790861 4,-4 -0.0012,-0.971578 -0.355945,-1.909514 -0.998047,-2.638672 L 19.765625,10.695312 C 19.490411,10.262361 19.01302,10.000091 18.5,10 17.671573,10 17,10.671573 17,11.5 c 2.75e-4,0.477654 0.228022,0.926621 0.613281,1.208984 l -0.04687,0.05274 c -0.04168,-0.05299 -0.086,-0.103833 -0.132812,-0.152344 -0.04651,-0.04799 -0.0954,-0.09362 -0.146485,-0.136719 -0.05069,-0.04297 -0.10349,-0.08338 -0.158203,-0.121094 -0.04872,-0.03346 -0.0989,-0.06474 -0.15039,-0.09375 -0.0097,-0.0053 -0.01949,-0.01051 -0.0293,-0.01562 -0.04971,-0.02688 -0.100537,-0.05164 -0.152344,-0.07422 -0.0091,-0.004 -0.0182,-0.0079 -0.02734,-0.01172 -0.04239,-0.01775 -0.08539,-0.03404 -0.128906,-0.04883 -0.02266,-0.0076 -0.04545,-0.01473 -0.06836,-0.02148 -0.0496,-0.01496 -0.09977,-0.028 -0.150391,-0.03906 -0.01234,-0.0027 -0.02472,-0.0053 -0.03711,-0.0078 -0.03694,-0.0069 -0.07406,-0.01277 -0.111328,-0.01758 -0.03892,-0.0057 -0.078,-0.01027 -0.117188,-0.01367 C 16.104284,12.003146 16.052165,12.000565 16,12 c -0.05217,5.65e-4 -0.104288,0.0032 -0.15625,0.0078 -0.03919,0.0034 -0.07827,0.008 -0.117188,0.01367 -0.03727,0.0048 -0.07439,0.01067 -0.111328,0.01758 -0.01239,0.0025 -0.02476,0.0051 -0.03711,0.0078 -0.05062,0.01107 -0.100786,0.0241 -0.150391,0.03906 -0.02291,0.0068 -0.0457,0.01391 -0.06836,0.02148 -0.04352,0.01479 -0.08651,0.03108 -0.128906,0.04883 -0.0091,0.0038 -0.01826,0.0077 -0.02734,0.01172 -0.05181,0.02258 -0.102634,0.04734 -0.152344,0.07422 -0.0098,0.0051 -0.01958,0.01033 -0.0293,0.01562 -0.05149,0.02901 -0.10167,0.06029 -0.15039,0.09375 -0.05471,0.03771 -0.107513,0.07813 -0.158203,0.121094 -0.05108,0.0431 -0.09997,0.08873 -0.146485,0.136719 -0.04681,0.04851 -0.09114,0.09936 -0.132812,0.152344 l -0.04687,-0.05274 C 14.771974,12.426658 14.999725,11.977654 15,11.5 15,10.671573 14.328427,10 13.5,10 Z M 10,17 c 1.656854,0 3,1.343146 3,3 0,1.656854 -1.343146,3 -3,3 -1.6568542,0 -2.9999999,-1.343146 -3,-3 1e-7,-1.656854 1.3431458,-3 3,-3 z m 12,0 c 1.656854,0 3,1.343146 3,3 0,1.656854 -1.343146,3 -3,3 -1.656854,0 -3,-1.343146 -3,-3 0,-1.656854 1.343146,-3 3,-3 z m -6,1 a 1,1 0 0 1 1,1 1,1 0 0 1 -1,1 1,1 0 0 1 -1,-1 1,1 0 0 1 1,-1 z"/>
 <path style="fill:#ffffff" d="m 13.5,9 c -0.51302,9.07e-5 -0.990411,0.2623613 -1.265625,0.6953125 L 6.9980469,16.361328 C 6.3559453,17.090486 6.001182,18.028422 6,19 c 0,2.209139 1.790861,4 4,4 2.025081,-0.0016 3.729459,-1.51645 3.96875,-3.527344 C 14.406514,19.813473 14.945209,19.998993 15.5,20 c 0.167949,-8.9e-5 0.335462,0.03368 0.5,0 0.164538,0.03368 0.332051,-9e-5 0.5,0 0.554791,-0.001 1.093486,-0.186527 1.53125,-0.527344 C 18.270541,21.48355 19.974919,22.998367 22,23 c 2.209139,0 4,-1.790861 4,-4 -0.0012,-0.971578 -0.355945,-1.909514 -0.998047,-2.638672 L 19.765625,9.6953125 C 19.490411,9.2623613 19.01302,9.0000907 18.5,9 17.671573,9 17,9.6715729 17,10.5 c 2.75e-4,0.477654 0.228022,0.926621 0.613281,1.208984 l -0.04687,0.05274 c -0.04168,-0.05299 -0.086,-0.103833 -0.132812,-0.152344 -0.04651,-0.04799 -0.0954,-0.09362 -0.146485,-0.136719 -0.05069,-0.04297 -0.10349,-0.08338 -0.158203,-0.121094 -0.04872,-0.03346 -0.0989,-0.06474 -0.15039,-0.09375 -0.0097,-0.0053 -0.01949,-0.0105 -0.0293,-0.01562 -0.04971,-0.02688 -0.100537,-0.05164 -0.152344,-0.07422 -0.0091,-0.004 -0.0182,-0.0079 -0.02734,-0.01172 -0.04239,-0.01775 -0.08539,-0.03404 -0.128906,-0.04883 -0.02266,-0.0076 -0.04545,-0.01473 -0.06836,-0.02148 -0.0496,-0.01496 -0.09977,-0.028 -0.150391,-0.03906 -0.01234,-0.0027 -0.02472,-0.0053 -0.03711,-0.0078 -0.03694,-0.0069 -0.07406,-0.01277 -0.111328,-0.01758 -0.03892,-0.0057 -0.078,-0.01027 -0.117188,-0.01367 -0.05197,-0.0047 -0.104085,-0.0072 -0.15625,-0.0078 -0.05217,5.65e-4 -0.104288,0.0032 -0.15625,0.0078 -0.03919,0.0034 -0.07827,0.008 -0.117188,0.01367 -0.03727,0.0048 -0.07439,0.01067 -0.111328,0.01758 -0.01239,0.0025 -0.02476,0.0051 -0.03711,0.0078 -0.05062,0.01107 -0.100786,0.0241 -0.150391,0.03906 -0.02291,0.0068 -0.0457,0.01391 -0.06836,0.02148 -0.04352,0.01479 -0.08651,0.03108 -0.128906,0.04883 -0.0091,0.0038 -0.01826,0.0077 -0.02734,0.01172 -0.05181,0.02258 -0.102634,0.04734 -0.152344,0.07422 -0.0098,0.0051 -0.01958,0.01033 -0.0293,0.01562 -0.05149,0.02901 -0.10167,0.06029 -0.15039,0.09375 -0.05471,0.03771 -0.107513,0.07813 -0.158203,0.121094 -0.05108,0.0431 -0.09997,0.08873 -0.146485,0.136719 -0.04681,0.04851 -0.09114,0.09936 -0.132812,0.152344 l -0.04687,-0.05274 C 14.771974,11.426658 14.999725,10.977654 15,10.5 15,9.6715729 14.328427,9 13.5,9 Z M 10,16 c 1.656854,0 3,1.343146 3,3 0,1.656854 -1.343146,3 -3,3 -1.6568542,0 -2.9999999,-1.343146 -3,-3 1e-7,-1.656854 1.3431458,-3 3,-3 z m 12,0 c 1.656854,0 3,1.343146 3,3 0,1.656854 -1.343146,3 -3,3 -1.656854,0 -3,-1.343146 -3,-3 0,-1.656854 1.343146,-3 3,-3 z m -6,1 a 1,1 0 0 1 1,1 1,1 0 0 1 -1,1 1,1 0 0 1 -1,-1 1,1 0 0 1 1,-1 z"/>
 <path style="fill:#ffffff;opacity:0.2" d="M 3.4003906 2 C 2.6247906 2 2 2.6247906 2 3.4003906 L 2 4.4003906 C 2 3.6247906 2.6247906 3 3.4003906 3 L 28.599609 3 C 29.375209 3 30 3.6247906 30 4.4003906 L 30 3.4003906 C 30 2.6247906 29.375209 2 28.599609 2 L 3.4003906 2 z"/>
</svg>
